X:1
T:Title
%%score ( 1 2 ) ( 3 4 )
L:1/8
Q:1/4=120
M:3/4
K:D
V:1 treble nm="MusicXML Part"
V:2 treble 
V:3 bass nm="MusicXML Part"
V:4 bass 
V:1
"^Wetherby (86. 86 (C.M.))""^Ye humble souls that fear the Lord""^Philip Doddridge\n(1702-51)" F2 | %1
w: Ye|
w: Thus|
w: Then|
w: High|
 A4 FE | D4 A2 | B4 B2 | A4 A2 | d4"^S. S. Wesley\n(1810-76)" c2 | (cB A2) ^G2 | A4 || A2 | c4 e2 | %10
w: hum- ble *|souls that|seek the|Lord, Chase|all your|fears * * a-|way;|And|bow with|
w: low the *|Lord of|life was|brought, Such|won- ders|love * * can|do;|Thus|cold in|
w: raise your *|eyes and|tune your|songs; The|Sav- iour|lives * * a-|gain:|Not|all the|
w: o'er th'an足 *|ge- lic|bands he|rears His|once dis-|hon足 * * oured|head;|And|through un-|
 d4 A2 | (A2 G2) F2 | G4 B2 | A4 D2 | (E2 F2) E2 | D4 |] %16
w: rap- ture|down * to|see The|place where|Je足 * sus|lay.|
w: death that|bos足 * om|lay, Which|throbbed and|bled * for|you.|
w: bolts and|bars * of|death The|Con- queror|could * de-|tain.|
w: num- bered|years * he|reigns, Who|dwelt a-|mong * the|dead.|
V:2
 D2 | F4 C2 | D4 D2 | D4 D2 | D4 E2 | D4 E2 | (F2 E2) E2 | C4 || E2 | A4 C2 | D4 F2 | (F2 E2) ^D2 | %12
 E4 G2 | F4 D2 | D4 C2 | D4 |] %16
V:3
 A,2 | A,4 A,G, | F,4 D,2 | (D,2 G,2) D,E, | F,4 A,2 | (F,2 ^G,2) A,2 | (D2 C2) B,2 | A,4 || C2 | %9
 E4 A,2 | A,4 C2 | B,4 B,2 | B,4 E,2 | F,4 A,2 | (B,2 A,2) A,G, | F,4 |] %16
V:4
 D,2 | D,4 A,,2 | B,,4 F,,2 | (G,,2 B,,2) G,,2 | D,4 C,2 | B,,4 C,2 | (D,2 E,2) E,2 | A,,4 || %8
 A,,2 | A,4 G,2 | F,4 F,2 | B,,4 B,,2 | E,4 C,2 | D,4 F,2 | G,2 A,2 A,,2 | D,4 |] %16

